X:135
T:Old Danish Schottische
M:4/4
L:1/8
Q:1/8=140
K:G
G>A B>F G2 D2|A>d c>B A4|F>B A>G F>E D2|G2 G>E D4|G>A B>F G2 D2
|A>d c>B A4|F>B A>G F>E D2|G2 D2 G4||
e2 c2 e3 c|d2 B2 d3 d|c>B A>G F>E D2|G>A B>c d4|e2 c2 e3 c|d2
B2 d3 d|c>B A>G F>E D2|G2 B2 G4||
